X: 37308
T: Skye Air
R: waltz
M: 3/4
K: Fmajor
C>D|F3 GFG|F2 G2 A2|f2 d2 cd|F4 G>A|
f2 d2 df|d4 G>A|F2 D2 F2|G4 c>A|G4:|
df|g2 g2 ga|g2 g2 ga|g2 fdfa|f2 d2 f>g|a4 gf|d4 fd|
c2 AGFG|A4 GA|f2 d2 cf|d4 GA|F2 D2 F2|G4 c>A|G4:|

